build/logo/MatryoshkaSolid.svg

<svg xmlns="http://www.w3.org/2000/svg" fill="none" viewBox="0 0 24 24" focusable="false"><path d="M0 0H24V24H0z"/><path fill="#74767B" fill-rule="evenodd" d="M19.7153 9.31812C18.7651 9.9707 17.8711 11.0979 17.7139 12.2397C17.6465 12.7307 17.5171 13.2175 17.3267 13.6875C16.9873 14.5244 15.915 14.592 15.2769 13.9536L9.71484 8.3916C9.07617 7.75317 9.14404 6.68091 9.98047 6.34155C10.4512 6.15088 10.9385 6.02173 11.4292 5.9541C12.5713 5.79712 13.6987 4.90356 14.3516 3.95337C14.4834 3.76099 14.6353 3.57788 14.8062 3.40674C16.313 1.90015 18.7559 1.90015 20.2622 3.40674C21.769 4.91357 21.769 7.3562 20.2622 8.86279C20.0913 9.03418 19.9077 9.18579 19.7153 9.31812ZM5.41406 14.6289C5.16602 14.9561 4.96924 15.3281 4.83643 15.7317L3.34326 15.7317C2.8877 15.7317 2.49609 16.0713 2.49609 16.5269C2.49609 18.4619 3.36865 20.1826 4.72168 21.2764C4.99365 21.4961 5.33984 21.5933 5.68945 21.5933L10.6699 21.5933C11.0195 21.5933 11.3657 21.4961 11.6377 21.2764C12.9907 20.1826 13.8633 18.4619 13.8633 16.5269C13.8633 16.0713 13.4717 15.7317 13.0161 15.7317L11.5229 15.7317C11.3901 15.3284 11.1934 14.9565 10.9458 14.6294C10.5122 14.0579 10.4097 13.1685 10.5405 12.4631C10.5674 12.3203 10.5811 12.1726 10.5811 12.022C10.5811 10.696 9.50635 9.62109 8.18018 9.62109C6.854 9.62109 5.7793 10.696 5.7793 12.022C5.7793 12.1726 5.79297 12.3198 5.81934 12.4629C5.9502 13.1682 5.84766 14.0574 5.41406 14.6289ZM9.2627 12.2258C9.27441 12.1606 9.28125 12.0928 9.28125 12.022C9.28125 11.4141 8.78809 10.9211 8.18018 10.9211C7.57227 10.9211 7.0791 11.4141 7.0791 12.022C7.0791 12.0928 7.08545 12.1606 7.09766 12.2256C7.27002 13.1548 7.17627 14.4568 6.44971 15.4146C6.37451 15.5137 6.30615 15.6196 6.24609 15.7317L10.1133 15.7317C10.0532 15.6199 9.98486 15.5139 9.90967 15.4148C9.18359 14.457 9.08984 13.1548 9.2627 12.2258Z"/></svg>

<svg xmlns="http://www.w3.org/2000/svg" fill="none" viewBox="0 0 24 24" focusable="false"><path fill="#74767B" fill-rule="evenodd" d="M19.71 9.31c-.95.66-1.84 1.78-2 2.92-.07.5-.2.98-.39 1.45-.34.84-1.41.91-2.05.27L9.71 8.39c-.64-.64-.57-1.71.27-2.05q.705-.285 1.44-.39c1.15-.16 2.27-1.05 2.93-2 .13-.19.28-.38.45-.55 1.51-1.5 3.95-1.5 5.46 0 1.5 1.51 1.5 3.95 0 5.46-.17.17-.36.32-.55.45m-14.3 5.31c-.25.33-.45.7-.58 1.11H3.34c-.46 0-.85.34-.85.79 0 1.94.87 3.66 2.23 4.75.27.22.61.32.96.32h4.98c.35 0 .7-.1.97-.32 1.36-1.09 2.23-2.81 2.23-4.75 0-.45-.39-.79-.85-.79h-1.49c-.13-.41-.33-.78-.58-1.11-.43-.57-.54-1.46-.4-2.16a2.4 2.4 0 0 0-2.36-2.84c-1.33 0-2.41 1.07-2.41 2.4 0 .15.02.29.04.44.14.7.03 1.59-.4 2.16m3.85-2.4a1.103 1.103 0 0 0-1.08-1.3c-.61 0-1.11.49-1.11 1.1 0 .07.01.14.02.2.18.93.08 2.23-.65 3.19-.07.1-.14.2-.2.32h3.87c-.06-.12-.13-.22-.21-.32-.72-.96-.82-2.26-.64-3.19"/></svg>
